!!!COM: Palestrina, Giovanni Perluigi da
!!!OPR: Missa Ecce ego Joannes
!!!OTL: Sanctus
**kern	**kern	**kern	**kern	**kern	**kern
*Ibass	*Ibarit	*Itenor	*Itenor	*Icalto	*Icant
!Bassus	!Baritone	!Tenor 2	!Tenor 1	!Altus	!Cantus
*clefF4	*clefF4	*clefGv2	*clefGv2	*clefG2	*clefG2
*k[]	*k[]	*k[]	*k[]	*k[]	*k[]
*G:mix	*G:mix	*G:mix	*G:mix	*G:mix	*G:mix
*M4/2	*M4/2	*M4/2	*M4/2	*M4/2	*M4/2
=1	=1	=1	=1	=1	=1
0r	0r	0g	0r	0b	0dd
=2	=2	=2	=2	=2	=2
0r	0r	1c	0r	1cc	1ee
.	.	1g	.	1b	2.dd
.	.	.	.	.	4ee
=3	=3	=3	=3	=3	=3
0r	0r	1.f	0r	1.a	4ff
.	.	.	.	.	4ee
.	.	.	.	.	4dd
.	.	.	.	.	4cc
.	.	.	.	.	4dd
.	.	.	.	.	4cc
.	.	2e	.	2g	[2cc
=4	=4	=4	=4	=4	=4
0G	1r	0d	1r	0g	2cc]
.	.	.	.	.	4b
.	.	.	.	.	4a
.	1G	.	1d	.	1b
=5	=5	=5	=5	=5	=5
1C	2G	1c	1e	0g	1cc
.	1c	.	.	.	.
1G	.	1r	2.d	.	1r
.	2B	.	.	.	.
.	.	.	4e	.	.
=6	=6	=6	=6	=6	=6
1.F	4A	0r	2.f	1.a	0r
.	4G	.	.	.	.
.	4F	.	.	.	.
.	4G	.	8e	.	.
.	.	.	8d	.	.
.	4A	.	1c	.	.
.	4B	.	.	.	.
2E	[2c	.	.	2g	.
=7	=7	=7	=7	=7	=7
0D	2c]	0r	0d	0f	0dd
.	4B	.	.	.	.
.	4A	.	.	.	.
.	1B	.	.	.	.
=8	=8	=8	=8	=8	=8
2C	1c	0g	2.e	2e	1g
1c	.	.	.	2c	.
.	.	.	4f	.	.
.	1G	.	2g	2d	1dd
2B	.	.	2d	[2g	.
=9	=9	=9	=9	=9	=9
1A	0r	1c	2e	2g]	1.cc
.	.	.	2c	2f	.
1G	.	1g	2r	2e	.
.	.	.	[2d	4d	2b
.	.	.	.	4e	.
=10	=10	=10	=10	=10	=10
4D	0r	1.f	2d]	4f	0a
4E	.	.	.	4g	.
4F	.	.	2d	4a	.
4G	.	.	.	4b	.
4A	.	.	1c	1cc	.
4B	.	.	.	.	.
[2c	.	2e	.	.	.
=11	=11	=11	=11	=11	=11
2c]	0r	1d	2G	1r	1g
2B	.	.	1g	.	.
1A	.	1c	.	2r	1r
.	.	.	2f#	[2cc	.
=12	=12	=12	=12	=12	=12
1G	0d	2r	1g	2cc]	1r
.	.	1g	.	2b	.
1D	.	.	2a	1a	1dd
.	.	2f#	[2d	.	.
=13	=13	=13	=13	=13	=13
0r	1G	1g	2d]	1b	2dd
.	.	.	1g	.	2.dd
.	1d	2a	.	[1a	.
.	.	.	.	.	4cc
.	.	2d	2f	.	4a
.	.	.	.	.	4b
=14	=14	=14	=14	=14	=14
0r	1.c	2.e	2e	2a]	4cc
.	.	.	.	.	4dd
.	.	.	4c	4g	1ee
.	.	4d	4d	4f	.
.	.	2c	4e	1g	.
.	.	.	4f	.	.
.	2B	2d	2g	.	[2dd
=15	=15	=15	=15	=15	=15
0r	1A	2e	1c	2a	4dd]
.	.	.	.	.	4cc
.	.	4d	.	2f	1cc
.	.	4c	.	.	.
.	1G	1d	1r	1g	.
.	.	.	.	.	2b
=16	=16	=16	=16	=16	=16
1.F	0r	1.f	1.c	1.a	1cc
.	.	.	.	.	1r
2F	.	2f	2c	2a	.
=17	=17	=17	=17	=17	=17
1F	0r	1f	0c	1a	0r
1C	.	1e	.	1g	.
=18	=18	=18	=18	=18	=18
0D	0r	4d	1A	2f	0r
.	.	4e	.	.	.
.	.	4f	.	4d	.
.	.	4g	.	4e	.
.	.	2a	1A	4f	.
.	.	.	.	4g	.
.	.	[2d	.	4a	.
.	.	.	.	4f	.
=19	=19	=19	=19	=19	=19
2G	0r	2d]	2B	2g	0r
2F#	.	2d	2A	2.a	.
2.G	.	2.B	[1d	.	.
.	.	.	.	4g	.
.	.	.	.	[2g	.
8F	.	8A	.	.	.
8E	.	8G	.	.	.
=20	=20	=20	=20	=20	=20
1D	1r	1A	1d]	2g]	1r
.	.	.	.	2f#	.
1C	2r	1c	2.e	2g	2r
.	[2c	.	.	[2cc	[2ee
.	.	.	4f	.	.
=21	=21	=21	=21	=21	=21
0r	2c]	0r	2g	2cc]	2ee]
.	2c	.	2g	2cc	2ee
.	1c	.	1g	1cc	1ee
=22	=22	=22	=22	=22	=22
0r	1G	1r	1g	1b	1dd
.	[1A	2r	2.e	1a	2cc
.	.	2e	.	.	4a
.	.	.	4d	.	4b
=23	=23	=23	=23	=23	=23
0r	1A]	2e	4c	[0a	4cc
.	.	.	4B	.	4dd
.	.	2e	1A	.	4ee
.	.	.	.	.	4cc
.	2d	2f	.	.	2dd
.	2c#	2e	2r	.	[2ee
=24	=24	=24	=24	=24	=24
0r	2.d	2.f	0r	1a]	4ee]
.	.	.	.	.	4dd
.	.	.	.	.	1dd
.	8c	8e	.	.	.
.	8B	8d	.	.	.
.	1A	2e	.	1a	.
.	.	2e	.	.	2cc#
=25	=25	=25	=25	=25	=25
1.G	2r	2g	2r	2b	2dd
.	1B	1g	1d	1b	1dd
2G	2B	2g	2d	2b	2dd
=26	=26	=26	=26	=26	=26
1G	1d	1g	1B	1b	2dd
.	.	.	.	.	2.gg
[1C	1c	2.g	1e	1cc	.
.	.	.	.	.	4ff
.	.	.	.	.	4ee
.	.	4f	.	.	4dd
=27	=27	=27	=27	=27	=27
1C]	1c	4e	2.e	2cc	1ee
.	.	4d	.	.	.
.	.	2c	.	2.g	.
.	.	.	4f	.	.
1E	2.G	1B	2g	.	1ee
.	.	.	.	4a	.
.	.	.	[2G	4b	.
.	4A	.	.	4cc	.
=28	=28	=28	=28	=28	=28
1G	4B	1G	4G]	4b	1dd
.	4c	.	4A	4a	.
.	2B	.	4B	1g	.
.	.	.	4c	.	.
1D	1A	1A	2d	.	1dd
.	.	.	2d	2f#	.
=29	=29	=29	=29	=29	=29
0G	2G	0B	2d	2g	2dd
.	1G	.	1g	1b	1dd
.	2G	.	2g	2b	2dd
=30	=30	=30	=30	=30	=30
0r	1c	0r	2g	1cc	1ee
.	.	.	1a	.	.
.	1d	.	.	1a	1ff#
.	.	.	2d	.	.
=31	=31	=31	=31	=31	=31
2r	2.e	2r	2r	2g	2.gg
1C	.	1c	1g	1e	.
.	4d	.	.	.	4ff
.	2.c	.	.	.	2.ee
2C	.	2c	2e	2g	.
.	4B	.	.	.	4dd
=32	=32	=32	=32	=32	=32
1F	1A	1c	1f	1a	1cc
1G	1r	1g	1d	1b	1r
=33	=33	=33	=33	=33	=33
2.A	0r	4e	2c	2cc	0r
.	.	4d	.	.	.
.	.	4c	2e	2a	.
4G	.	4B	.	.	.
1F	.	1A	4a	4cc	.
.	.	.	4g	4b	.
.	.	.	4f	4a	.
.	.	.	4e	4g	.
=34	=34	=34	=34	=34	=34
2r	0r	1r	4d	4f	0r
.	.	.	4c	4e	.
2A	.	.	2f	2a	.
4c	.	2r	4e	2g	.
4B	.	.	4d	.	.
4A	.	2e	4c	2a	.
4G	.	.	4B	.	.
=35	=35	=35	=35	=35	=35
4F	0r	4a	2A	1cc	0r
4E	.	4g	.	.	.
1F	.	4f	1a	.	.
.	.	4e	.	.	.
.	.	4d	.	2f	.
.	.	4c	.	.	.
2E	.	[2c	2g	2g	.
=36	=36	=36	=36	=36	=36
1D	1r	2c]	1.f	2a	1r
.	.	2B	.	4g	.
.	.	.	.	4f	.
[1C	2r	[1c	.	2a	2r
.	2c	.	2e	2g	2ee
=37	=37	=37	=37	=37	=37
1C]	4e	1c]	2r	2r	4gg
.	4d	.	.	.	4ff
.	4c	.	2e	2g	4ee
.	4B	.	.	.	4dd
1r	[1A	1r	4e	4a	4cc
.	.	.	4d	4g	4b
.	.	.	4c	4f	[2cc
.	.	.	4B	4e	.
=38	=38	=38	=38	=38	=38
0r	2A]	0r	2A	4f	2cc]
.	.	.	.	4e	.
.	2E	.	2G	1e	2b
.	1F	.	2.A	.	1a
.	.	.	.	2d	.
.	.	.	4B	.	.
=39	=39	=39	=39	=39	=39
2r	1C	0r	4c	2e	2g
.	.	.	4d	.	.
1c	.	.	4e	2g	1gg
.	.	.	4f	.	.
.	1r	.	2g	2e	.
2A	.	.	2a	[2cc	2ff
=40	=40	=40	=40	=40	=40
1c	0r	0r	2g	4cc]	1ee
.	.	.	.	4b	.
.	.	.	2c	1a	.
1B	.	.	1d	.	1dd
.	.	.	.	2g#	.
=41	=41	=41	=41	=41	=41
1A	2r	2r	1e	1a	2cc
.	1c	1e	.	.	1ee
1A	.	.	2r	1cc	.
.	2A	2f	[2c	.	2cc
=42	=42	=42	=42	=42	=42
2A	1c	2e	4c]	2a	1ee
.	.	.	4A	.	.
2A	.	1a	2e	2a	.
1E	1B	.	1e	1b	1ee
.	.	2g#	.	.	.
=43	=43	=43	=43	=43	=43
1A	1A	1a	1c#	1e	1ee
1r	1r	1r	1r	1r	1r
=44	=44	=44	=44	=44	=44
0r	0r	1f#	1d	1a	1dd
.	.	2g	2G	2b	2dd
.	.	2g	2G	2b	2dd
=45	=45	=45	=45	=45	=45
0r	0r	1.g	0c	1.cc	2ee
.	.	.	.	.	4cc
.	.	.	.	.	4dd
.	.	.	.	.	4ee
.	.	.	.	.	4ff
.	.	2e	.	2g	4gg
.	.	.	.	.	4ee
=46	=46	=46	=46	=46	=46
0r	0r	2.a	1A	2.cc	2ff
.	.	.	.	.	2.ee
.	.	4g	.	4b	.
.	.	2f	1d	1a	.
.	.	.	.	.	4dd
.	.	4e	.	.	[2dd
.	.	4d	.	.	.
=47	=47	=47	=47	=47	=47
1r	1r	1e	1A	1a	2dd]
.	.	.	.	.	2cc#
1G	1B	1g	1d	2r	1dd
.	.	.	.	2g	.
=48	=48	=48	=48	=48	=48
2C	2c	2r	2e	2g	2r
2C	2c	2c	2e	2g	2gg
[1F	1A	1c	2f	2a	2cc
.	.	.	[2a	4f	2cc
.	.	.	.	4g	.
=49	=49	=49	=49	=49	=49
1F]	1c	1A	4a]	4a	1.ff
.	.	.	4g	4b	.
.	.	.	4f	4cc	.
.	.	.	4e	4a	.
1D	2.d	2r	2.f	2b-	.
.	.	2A	.	[2a	2dd
.	4c	.	4e	.	.
=50	=50	=50	=50	=50	=50
1G	2B	2B	1d	4a]	0dd
.	.	.	.	4g	.
.	4A	2.d	.	1g	.
.	4G	.	.	.	.
1D	1A	.	1d	.	.
.	.	4c	.	.	.
.	.	2A	.	2f#	.
=51	=51	=51	=51	=51	=51
0G	0G	0B	0d	0g	0dd
==	==	==	==	==	==
*-	*-	*-	*-	*-	*-
!!!CDT: 1525/^1526/-1594/2/2
!!!OCY: Italia
!!!AGN: Mass (Parody)
!!!AST: renaissance, vocal
!!!ASW: Motet (Unidentified)
!!!PWK: Masses, Book 12
!!!RNB: Cadence finals: D
!!!YOR: Le Opere Complete, v. 29, p. 197
!!!YOO: Rome, Italy: Fratelli Scalera
!!!END: 1992//
!!!EED: John Miller
!!!YEC: Copyright 2000, John Miller
!!!YEN: United States of America
!!!YEM: Rights to all derivative electronic formats reserved.
!!!YEM: Refer to licensing agreement for further details.
!!!YEM: This file must be accompanied by the licensing agreement.
!!!YEM: A copy of the licensing agreement may be found at http://www.music-cog.ohio-state.edu/HumdrumDatabases/Palestrina/license.txt
!!!EMD: converted to Humdrum by Bret Aarden
